public/integrations/atom.svg

<svg width="48" height="48" viewBox="0 0 48 48" version="1.1" xmlns="http://www.w3.org/2000/svg" xmlns:xlink="http://www.w3.org/1999/xlink">
<title>Group</title>
<desc>Created using Figma</desc>
<g id="Canvas" transform="translate(-17505 621)">
<g id="Group">
<g id="Vector">
<use xlink:href="#path0_fill" transform="translate(17505 -621)" fill="url(#paint0_linear)"/>
</g>
<g id="Vector">
<use xlink:href="#path1_fill" transform="translate(17507 -618.918)" fill="url(#paint1_linear)"/>
</g>
<g id="Vector">
<use xlink:href="#path2_fill" transform="translate(17513.5 -611.14)" fill="#F2F8F6"/>
</g>
<g id="Vector">
<use xlink:href="#path3_fill" transform="translate(17527.3 -598.539)" fill="#F1F8F3"/>
</g>
</g>
</g>
<defs>
<linearGradient id="paint0_linear" x1="0" y1="0" x2="1" y2="0" gradientUnits="userSpaceOnUse" gradientTransform="matrix(0 46.0888 46.0888 0 0.961509 1.91321)">
<stop offset="0" stop-color="#FDFDFD"/>
<stop offset="1" stop-color="#CBCBCB"/>
</linearGradient>
<linearGradient id="paint1_linear" x1="0" y1="0" x2="1" y2="0" gradientUnits="userSpaceOnUse" gradientTransform="matrix(0 42.1413 42.1413 0 0.882492 1.73281)">
<stop offset="0" stop-color="#B2E198"/>
<stop offset="1" stop-color="#04A171"/>
</linearGradient>
<path id="path0_fill" d="M 24 48C 37.2548 48 48 37.2548 48 24C 48 10.7452 37.2548 0 24 0C 10.7452 0 0 10.7452 0 24C 0 37.2548 10.7452 48 24 48Z"/>
<path id="path1_fill" d="M 21.9444 43.8888C 34.064 43.8888 43.8888 34.064 43.8888 21.9444C 43.8888 9.82484 34.064 0 21.9444 0C 9.82484 0 0 9.82484 0 21.9444C 0 34.064 9.82484 43.8888 21.9444 43.8888Z"/>
<path id="path2_fill" d="M 10.3108 10.779C 10.0545 11.174 9.80498 11.5734 9.56222 11.9769C 9.3059 11.2737 9.07526 10.5614 8.87066 9.84143C 9.57086 9.74099 10.3151 9.66179 11.0995 9.60695C 10.8301 9.99323 10.5671 10.3839 10.3108 10.779ZM 29.6706 12.1821C 28.8951 11.4375 27.786 10.7552 26.3748 10.1541C 23.5731 8.96111 19.8204 8.18807 15.8077 7.97771C 15.337 7.95287 14.8659 7.93547 14.3945 7.92575C 17.4581 4.26899 20.4167 2.32343 22.1399 2.25767C 22.5048 2.24375 22.8112 2.31587 23.0511 2.47187C 23.8575 2.99591 24.0813 4.62167 23.6496 6.82031C 23.5715 7.25567 23.8611 7.67207 24.2964 7.75019C 24.7218 7.82651 25.1311 7.55159 25.2213 7.12895C 25.9632 3.34907 24.9255 1.77983 23.9241 1.12883C 23.4013 0.789108 22.7803 0.630468 22.0789 0.657108C 19.4285 0.757668 15.7149 3.58391 12.3264 7.94075C 10.9847 7.98707 9.69135 8.10287 8.48162 8.28371C 8.35287 7.69283 8.2511 7.09643 8.17658 6.49631C 7.87262 3.99155 8.24546 2.21351 9.17367 1.74035C 9.32271 1.66427 9.48567 1.62035 9.67179 1.60655C 10.5011 1.54427 11.6712 2.10155 12.9646 3.17555C 13.3073 3.45515 13.8119 3.40391 14.0915 3.06119C 14.3676 2.72267 14.3215 2.22527 13.9879 1.94327C 12.3268 0.563627 10.8345 -0.0871321 9.55178 0.00934785C 9.1553 0.0389878 8.78306 0.141347 8.44586 0.313427C 7.58366 0.752987 6.99446 1.59515 6.69458 2.81579C 6.43778 3.86135 6.40142 5.16455 6.58646 6.68939C 6.65966 7.29251 6.7667 7.91999 6.90458 8.56607C 5.9585 8.76539 5.0819 9.00827 4.29602 9.29231C 0.857904 10.5342 0.0643437 12.1712 0.00386373 13.3257C -0.0539763 14.4287 0.510624 16.07 3.52814 17.6262C 3.92534 17.8208 4.40522 17.6564 4.59974 17.2592C 4.78862 16.8735 4.63982 16.4075 4.2623 16.2027C 2.52662 15.3074 1.55738 14.2895 1.60346 13.4096C 1.66838 12.1698 3.74654 10.8576 7.28618 10.1181C 7.61414 11.3024 8.0351 12.5323 8.54006 13.7793C 7.26794 16.1676 6.33974 18.5213 5.85842 20.6149C 5.51438 22.1109 5.4137 23.4098 5.55962 24.4755C 5.72966 25.7201 6.22754 26.6187 7.03898 27.1463C 7.45286 27.4153 8.0105 27.6254 8.74322 27.6254C 9.80522 27.6254 11.235 27.183 13.1249 25.835C 13.4866 25.5803 13.5732 25.0806 13.3185 24.7189C 13.0637 24.3572 12.564 24.2706 12.2023 24.5253C 12.1998 24.5271 12.1973 24.5289 12.1948 24.5307C 10.3318 25.8597 8.73086 26.3352 7.91198 25.803C 7.03874 25.2355 6.85466 23.43 7.41938 20.9736C 7.7939 19.3447 8.46206 17.5393 9.3683 15.6783C 9.56654 16.1029 9.77198 16.5242 9.9845 16.9418C 11.8085 20.5247 14.0412 23.6419 16.2715 25.7195C 17.3947 26.7655 18.4692 27.5022 19.4646 27.9087C 20.0687 28.1553 20.6359 28.2787 21.1625 28.2787C 21.6498 28.2787 22.1026 28.173 22.5171 27.9614C 23.3487 27.5373 23.9269 26.7375 24.2359 25.5841C 24.5007 24.5961 24.5599 23.3641 24.4128 21.9216C 24.1231 19.0853 23.0514 15.626 21.3951 12.1812C 21.196 11.7861 20.7144 11.6273 20.3194 11.8263C 19.9347 12.0201 19.7722 12.4836 19.9516 12.8751C 21.5297 16.1573 22.5481 19.4276 22.8193 22.0841C 23.0578 24.4205 22.6729 26.0841 21.7896 26.5346C 20.862 27.0077 19.2075 26.2647 17.3634 24.5472C 15.2667 22.5943 13.1531 19.6352 11.4119 16.2152C 11.0203 15.4464 10.654 14.6649 10.3137 13.8721C 10.7362 13.1171 11.1834 12.3761 11.6544 11.6504C 12.1242 10.9255 12.6173 10.2161 13.1329 9.52319C 13.2643 9.52127 13.3967 9.51995 13.5299 9.51959C 14.2176 9.51731 14.955 9.53651 15.7239 9.57683C 19.5539 9.77771 23.1136 10.506 25.7473 11.6275C 28.0637 12.6141 29.4141 13.8245 29.3596 14.8655C 29.3134 15.7491 28.2395 16.6628 26.4133 17.3718C 26.0031 17.537 25.8043 18.0036 25.9695 18.414C 26.1318 18.8171 26.5859 19.0172 26.9929 18.8651C 30.1661 17.6331 30.9012 16.0556 30.9592 14.9492C 31.0098 13.9824 30.5763 13.0513 29.6706 12.1818L 29.6706 12.1821Z"/>
<path id="path3_fill" d="M 7.32422e-07 1.75152C 7.32422e-07 2.71884 0.78348 3.5028 1.74996 3.5028C 2.71644 3.5028 3.49992 2.71872 3.49992 1.75152C 3.49992 0.78408 2.71644 -6.15234e-07 1.74996 -6.15234e-07C 0.78348 -6.15234e-07 7.32422e-07 0.784081 7.32422e-07 1.75128"/>
</defs>
</svg>

<svg width="48" height="48" xmlns="http://www.w3.org/2000/svg" xmlns:xlink="http://www.w3.org/1999/xlink"><use xlink:href="#a" fill="url(#b)"/><use xlink:href="#c" transform="translate(2 2.082)" fill="url(#d)"/><use xlink:href="#e" transform="translate(8.5 9.86)" fill="#F2F8F6"/><use xlink:href="#f" transform="translate(22.3 22.461)" fill="#F1F8F3"/><defs><path id="a" d="M24 48c13.255 0 24-10.745 24-24S37.255 0 24 0 0 10.745 0 24s10.745 24 24 24Z"/><path id="c" d="M21.944 43.889c12.12 0 21.945-9.825 21.945-21.945C43.889 9.824 34.064 0 21.944 0 9.824 0 0 9.825 0 21.944 0 34.064 9.825 43.89 21.944 43.89Z"/><path id="e" d="M10.31 10.779c-.255.395-.505.794-.748 1.198a30.9 30.9 0 0 1-.691-2.136c.7-.1 1.444-.18 2.229-.234-.27.386-.533.777-.79 1.172Zm19.36 1.403c-.775-.745-1.884-1.427-3.295-2.028-2.802-1.193-6.555-1.966-10.567-2.176-.471-.025-.942-.043-1.413-.052 3.063-3.657 6.022-5.603 7.745-5.668.365-.014.671.058.911.214.807.524 1.03 2.15.599 4.348a.801.801 0 0 0 1.571.309c.742-3.78-.296-5.35-1.297-6C23.401.789 22.78.63 22.08.657c-2.65.1-6.364 2.927-9.753 7.284a34.094 34.094 0 0 0-3.844.343c-.13-.591-.23-1.188-.305-1.788-.304-2.504.068-4.282.997-4.756.149-.076.312-.12.498-.133.83-.063 2 .495 3.293 1.569a.801.801 0 0 0 1.023-1.233C12.327.563 10.835-.087 9.552.01c-.397.03-.769.132-1.106.304-.862.44-1.452 1.282-1.751 2.503-.257 1.045-.294 2.349-.109 3.873.074.604.18 1.231.319 1.877-.947.2-1.823.442-2.609.726C.858 10.534.064 12.172.004 13.326c-.058 1.103.507 2.744 3.524 4.3a.801.801 0 0 0 .734-1.423c-1.735-.896-2.705-1.913-2.659-2.793.065-1.24 2.144-2.552 5.683-3.292A33.94 33.94 0 0 0 8.54 13.78c-1.272 2.389-2.2 4.742-2.682 6.836-.344 1.496-.444 2.795-.298 3.86.17 1.245.668 2.144 1.479 2.671.414.27.972.48 1.704.48 1.062 0 2.492-.443 4.382-1.791a.801.801 0 1 0-.923-1.31l-.007.006c-1.863 1.329-3.464 1.804-4.283 1.272-.873-.568-1.057-2.373-.493-4.83.375-1.628 1.043-3.434 1.95-5.295.198.425.403.846.616 1.264 1.824 3.583 4.056 6.7 6.287 8.777 1.123 1.046 2.197 1.783 3.193 2.19.604.246 1.17.37 1.698.37.487 0 .94-.106 1.354-.318.832-.424 1.41-1.223 1.719-2.377.265-.988.324-2.22.177-3.662-.29-2.837-1.362-6.296-3.018-9.74a.801.801 0 0 0-1.443.693c1.578 3.282 2.596 6.553 2.867 9.21.239 2.335-.146 4-1.03 4.45-.927.473-2.582-.27-4.426-1.988-2.096-1.953-4.21-4.912-5.951-8.332a39.42 39.42 0 0 1-1.098-2.343 40.053 40.053 0 0 1 2.82-4.349 39.653 39.653 0 0 1 2.591.054c3.829.2 7.389.929 10.022 2.05 2.317.987 3.667 2.197 3.613 3.239-.047.883-1.12 1.797-2.947 2.506a.801.801 0 0 0 .58 1.493c3.173-1.232 3.908-2.81 3.966-3.916.05-.967-.383-1.898-1.288-2.767Z"/><path id="f" d="M0 1.752a1.75 1.75 0 1 0 3.501.001A1.75 1.75 0 0 0 0 1.751"/><linearGradient id="b" x1="0" y1="0" x2="1" y2="0" gradientUnits="userSpaceOnUse" gradientTransform="matrix(0 46.0888 46.0888 0 .962 1.913)"><stop offset="0" stop-color="#FDFDFD"/><stop offset="1" stop-color="#CBCBCB"/></linearGradient><linearGradient id="d" x1="0" y1="0" x2="1" y2="0" gradientUnits="userSpaceOnUse" gradientTransform="matrix(0 42.1413 42.1413 0 .882 1.733)"><stop offset="0" stop-color="#B2E198"/><stop offset="1" stop-color="#04A171"/></linearGradient></defs></svg>
